svg/emoji_u1fa70.svg

<?xml version="1.0" encoding="utf-8"?>
<!-- Generator: Adobe Illustrator 25.2.3, SVG Export Plug-In . SVG Version: 6.00 Build 0)  -->
<svg version="1.1" id="Layer_2" xmlns="http://www.w3.org/2000/svg" xmlns:xlink="http://www.w3.org/1999/xlink" x="0px" y="0px"
	 viewBox="0 0 128 128" style="enable-background:new 0 0 128 128;" xml:space="preserve">
<path style="fill:#CA8865;" d="M22.44,6.22c0,0,2.82-4.22,15.51-1.97C50.07,6.4,52.38,9.79,51.43,12.1
	c-0.94,2.29-14.29,7.28-14.29,7.28l-9.67,1.88c0,0-0.41,1.07-0.65,2.66c-0.24,1.58-0.54,6.11-0.54,6.11l-5.44-9.49L22.44,6.22z"/>
<path style="fill:#E4BF8F;" d="M51.91,60.74c0,0,2.95-0.63,4.83-2.86c1.84-2.19,3.61-5.55,3.67-7.16c0.09-2.24-0.54-3.22-0.98-3.58
	c-1.05-0.84-6.8,5.55-6.8,5.55L51.91,60.74z"/>
<path style="fill:#CA8865;" d="M83.16,16.52l-11.28,8.42c0,0-1.97,2.69,5.01,3.94c6.98,1.25,13.16,1.34,13.16,1.34
	s12.8-5.64,12.62-6.54s-1.16-6.27-1.61-6.18C100.62,17.59,83.16,16.52,83.16,16.52z"/>
<path style="fill:#EFC2A2;" d="M74.47,87.87c-0.27,1.07-1.07,2.69-2.06,3.94c-0.79,1-2.38,1.34-2.33,2.24
	c0.09,1.52,3.49,4.12,4.57,4.12s2.78-1.7,2.6-4.03c-0.18-2.33-0.18-6.54-0.18-6.54L74.47,87.87z"/>
<path style="fill:#CA8865;" d="M48.69,41.32l1.34-4.12l2.15-3.04l3.49,2.33l3.4,9.22L59,50.44c0,0-1.27,2.87-4.23,7.08
	s-3.88,6.01-5.73,9.58c-1.34,2.6-2.96,6.73-3.67,12.18c-1.07,8.24,0,14.86-0.18,22.74s-1.15,15.72-3.74,18.49
	c-2.34,2.5-5.57,3.98-12.37,4.07s-7.31-1.63-7.31-1.63l-3.43-39.64l20.32-42.44L48.69,41.32z"/>
<path style="fill:#865C52;" d="M47.22,42.52c0,0-2.42-0.38-5.68,2.42c-2.64,2.27-4.47,7.34-7.64,15.59
	c-3.03,7.86-5.75,14.15-8.02,18.16s-3.94,7.04-4.99,9.16c-0.91,1.82-4.31,1.14-4.31,0.83s-3.63-4.09-3.63-4.09l-0.3-4.62
	c0,0,5.22-7.49,5.22-7.72s5.98-13.09,5.98-13.09s4.77-18.54,4.92-19.07s6.58-9.16,6.58-9.16l12.26-1.89c0,0,0.98,6.81,0.98,7.11
	s-0.15,6.21-0.15,6.21L47.22,42.52z"/>
<path style="fill:#DCA282;" d="M48.7,28.53c0,0,1.58,0.39,3.64,1.94c2.46,1.86,4.11,4.07,5.37,6.33c1.13,2.03,1.86,4.99,2.1,7.75
	c0.24,2.76-0.42,5.34-0.84,5.88c-0.42,0.54-1.68-6.96-3.12-10.07c-1.41-3.05-2.7-4.02-4.5-3.84c-1.87,0.19-1.74,0.72-1.74,0.72
	L48.7,28.53z"/>
<path style="fill:#DCA282;" d="M28.01,85.62l3.06-0.22c0,0,2.5,9.02,3.34,17.63s0.83,13.23,0.74,15.27s-0.65,3.79-2.96,5
	c-2.31,1.2-6.66,1.02-8.79,0.65c-2.13-0.37-3.84-2.7-5.5-5.57s-4.04-8.26-5.6-15.07c-2.41-10.46-1.57-18.32-1.57-18.32l8.61,4.53
	L28.01,85.62z"/>
<path style="fill:#F8E2D5;" d="M25.93,43.16c0,0-1.55,10.51-2.84,14.58c-1.3,4.07-2.66,8.09-6.45,13.64
	c-2.5,3.67-5.18,5.92-6.11,8.42c-0.93,2.5-0.83,4.9,0.09,6.85s1.9,2.44,1.9,2.44s-0.72,1.2-1.77,2.14c-0.95,0.84-2.2,1.3-2.2,1.85
	c0,0.55,0.8,1.83,2.25,2.9c0.98,0.72,2.45,1.45,2.85,1.45c0.4,0,2.85-4.51,2.85-4.36c0,0.15,2.31,5.32,2.76,5.37
	c2.25,0.25,5.5-3.35,5.5-4.22c0-0.55-3.69-3.71-3.69-3.71s4.79,0.3,9.25-4s10.52-14.29,14.93-26.15s6.32-22.23,5.19-27.68
	s-2.6-5.8-2.6-5.8l-1.64,2.25c0,0,1.82,4.67,0.78,11.25s-4.84,19.73-9,28.03c-3.59,7.17-8.65,15.05-14.88,17.91
	c-6.23,2.85-11.16-3.05-8.65-7.09c1.56-2.51,4.41-5.45,7.09-10.99c3.06-6.32,5.1-14.97,5.71-18s1.3-6.14,1.3-6.14L25.93,43.16z"/>
<path style="fill:#CA8865;" d="M18.81,40.79c0,0-3.64,9.64-3.5,10.66s2.03,5.08,3.42,7.03c2.38,3.34,4.23,5.58,4.67,5.58
	s2.92-9.48,2.92-9.48s-1.9-2.7-3.19-5.05c-2.33-4.23-1.33-7.35-1.47-7.57C21.51,41.74,18.81,40.79,18.81,40.79z"/>
<path style="fill:#FDE1CC;" d="M14.97,101.56c-1.08,0.36-0.6,2.01,0.42,5.2s3.94,10.37,7.59,12.83c2.46,1.66,6.56,1.82,6.32-1.13
	c-0.15-1.9-3.03-1.95-5.29-4.16c-3.06-2.98-4.81-5.56-6.24-8.23C16.95,104.55,16.11,101.18,14.97,101.56z"/>
<path style="fill:#E7AC84;" d="M35.48,14.24c-12.52-1.9-12.77-7.46-12.81-7.72c-0.11-0.77-0.35-0.18-0.45,0.15
	c-0.1,0.33-1.75,8.46-2.15,10.34c-0.41,1.88-2.64,10.14-2.61,10.61c0.03,0.47,0.35,2.13,0.92,3.23c0.57,1.09,1.96,3.85,1.96,3.85
	s-1.77,1.21-3.17,2.3s-2.75,3.09-2.75,3.09s-0.34,0.64-0.26,4.04c0.08,3.4,1.17,7.36,1.17,7.36s0.93-2.31,3.79-4.99
	c2.87-2.68,5.53-4.11,5.53-4.11s3.32,5.17,6.53,9.32s9.62,10.19,9.62,10.19s1.28-3.28,1.7-4.53s1.41-4.54,1.41-4.54
	s-2.2-2.28-6.12-6.2s-5.79-8-5.79-8s4.6-1.88,8.97-4.41c5.6-3.23,8.44-5.43,8.44-5.43s0.72-2.98,1.23-7.41
	c0.58-5,1.02-10.16,1.02-10.16S48.69,16.24,35.48,14.24z M36.39,26.59c-3.17,1.41-8.51,3.62-8.51,3.62l-4.18-10.57
	c0,0,2.32,1.7,7.12,3c4.81,1.3,12.21,0.96,12.21,0.96S39.55,25.17,36.39,26.59z"/>
<path style="fill:#E7AC84;" d="M74.92,9.64l-3.04,15.29c0,0,6.35-2,14.56-2.77s14.95-0.47,14.95,0.65s-8.45,1.95-16.54,5.55
	s-14.06,8.45-14.06,8.45s-0.18,4.78,0.18,8.8s0.95,7.03,0.95,7.03s4.43,3.01,7.8,4.73c3.37,1.71,5.32,2.48,5.32,2.48l3.25-8.8
	c0,0-4.31-2.01-6.2-3.25s-3.72-1.95-3.84-3.43c-0.12-1.48,5.08-4.96,11.76-7.97c6.68-3.01,10.81-3.66,10.81-3.66
	s4.37-2.95,4.31-3.19c-0.06-0.24-1.06-4.67-1-10.16c0.06-5.49,0.12-9.51,0.12-9.51s-3.43-3.19-14.71-2.72
	C78.23,7.64,74.92,9.64,74.92,9.64z"/>
<path style="fill:#DDA281;" d="M108.09,32.52l0.99,11.68l-8.2,43.47l7.45,31.5c0,0-2.19,5.6-11.67,5.76
	c-5.84,0.1-7.93-2.43-8.82-3.11c-0.89-0.68-6.09-10.68-8.14-16.34c-4.55-12.55-5.23-17.62-5.23-17.62l3.93-9.27l8.82-25.96
	l8.32-14.41l8.07-7.45L108.09,32.52z"/>
<path style="fill:#CA8865;" d="M109.08,29.79l-4.47,1.86c0,0,3.07,1.37,3.11,6.09c0.07,9.91-4.98,17.96-9.31,25.87
	c-2.78,5.08-5.17,7.09-7.58,7.79c-1.67,0.49-3.44,0.02-3.28,1.23c0.21,1.61,4,2.46,4,2.46s-1.87,2.8-4.2,4.4
	c-2.33,1.6-5.46,2.46-4.93,3.53c0.53,1.07,6.73-0.2,6.73-0.2s-1.4,2.66-2.73,3.8s-2.66,1.6-2,2.6c0.67,1,3.6-0.07,4.4-0.4
	c0.8-0.33,2-1,2-1s-1.02,9,0,16.06c0.87,6,3.14,13.56,7.58,16.5c2.41,1.6,7.08,1.46,9.01,0.01c1.45-1.09,2.93-5.09,3.13-7.29
	c0.2-2.2-11.12-23.55-11.12-23.55l7.53-24.85l10.93-11.66c0,0,1.73-2.4,1.8-7.53s-3.53-10.86-5.73-12.92
	C111.73,30.52,109.08,29.79,109.08,29.79z"/>
<path style="fill:#F8E2D5;" d="M112.26,55.51l-1.87-5.67c0,0,2.13-8.19,0.73-12.79s-3.6-5.36-5.73-5.46
	c-1.25-0.06-11.03,8.41-16.88,22.97c-5.85,14.55-8.47,26.48-10.86,29.94c-2.39,3.46-3.9,4.11-4.53,3.1
	c-1.19-1.91,0.84-4.06,2.15-6.44c1.31-2.39,7.47-21.87,10.5-28.87c3.46-7.99,9.99-17.6,15.48-21.77c3.31-2.52,5.76-2.44,5.76-2.44
	s5.06,1.49,7.92,5.31s2.57,9.37,1.62,15.81S112.26,55.51,112.26,55.51z"/>
<path style="fill:#F8E2D5;" d="M79.34,87.85c-1.65,0.48-1.19,3.37,0.85,10.14c2.5,8.28,6.42,16.3,7.11,17.57
	c0.69,1.27,1.33,2.44,2.28,1.96c0.96-0.48-0.42-2.81-1.17-4.67c-0.87-2.17-2.79-7.58-5.1-15.56C82.05,92.89,81.36,87.27,79.34,87.85
	z"/>
<path style="fill:#F8E2D5;" d="M101.8,36.94c-0.81-0.19-3.77,1.96-5.95,8.39c-2.18,6.42-1.92,11.85-0.11,11.89
	c2.12,0.05,1.7-6.69,3.34-11.31C100.98,40.63,102.92,37.2,101.8,36.94z"/>
<path style="fill:#E4BF8C;" d="M116.21,48.09c-4.62-2.27-15.18,7.7-20.73,31.77s-0.01,41.7,10.84,38.35
	c11.62-3.58-2.51-30.95,0.4-41.79c1.15-4.3,1.9-6.33,2.81-8.59c1.19-2.95,2.93-5.87,3.37-6.56
	C114.56,58.68,121.85,50.86,116.21,48.09z"/>
<path style="fill:#DDA281;" d="M97.9,70.96l11.69-3.12c0,0-2.24,5.54-2.84,8.4c-0.5,2.39-0.34,4.14-0.34,4.14L94.5,83.89
	c0,0,0.91-4.31,1.65-7.04S97.9,70.96,97.9,70.96z"/>
</svg>

<?xml version="1.0" encoding="UTF-8" standalone="no"?>
<!DOCTYPE svg PUBLIC "-//W3C//DTD SVG 1.1//EN" "http://www.w3.org/Graphics/SVG/1.1/DTD/svg11.dtd">
<svg width="100%" height="100%" viewBox="0 0 128 128" version="1.1" xmlns="http://www.w3.org/2000/svg" xmlns:xlink="http://www.w3.org/1999/xlink" xml:space="preserve" xmlns:serif="http://www.serif.com/" style="fill-rule:evenodd;clip-rule:evenodd;stroke-linejoin:round;stroke-miterlimit:2;">
    <path d="M22.44,6.22C22.44,6.22 25.26,2 37.95,4.25C50.07,6.4 52.38,9.79 51.43,12.1C50.49,14.39 37.14,19.38 37.14,19.38L27.47,21.26C27.47,21.26 27.06,22.33 26.82,23.92C26.58,25.5 26.28,30.03 26.28,30.03L20.84,20.54L22.44,6.22Z" style="fill:rgb(231,102,43);fill-rule:nonzero;"/>
    <path d="M51.91,60.74C51.91,60.74 54.86,60.11 56.74,57.88C58.58,55.69 60.35,52.33 60.41,50.72C60.5,48.48 59.87,47.5 59.43,47.14C58.38,46.3 52.63,52.69 52.63,52.69L51.91,60.74Z" style="fill:rgb(228,191,143);fill-rule:nonzero;"/>
    <path d="M83.16,16.52L71.88,24.94C71.88,24.94 69.91,27.63 76.89,28.88C83.87,30.13 90.05,30.22 90.05,30.22C90.05,30.22 102.85,24.58 102.67,23.68C102.49,22.78 101.51,17.41 101.06,17.5C100.62,17.59 83.16,16.52 83.16,16.52Z" style="fill:rgb(231,102,43);fill-rule:nonzero;"/>
    <path d="M74.47,87.87C74.2,88.94 73.4,90.56 72.41,91.81C71.62,92.81 70.03,93.15 70.08,94.05C70.17,95.57 73.57,98.17 74.65,98.17C75.73,98.17 77.43,96.47 77.25,94.14C77.07,91.81 77.07,87.6 77.07,87.6L74.47,87.87Z" style="fill:rgb(230,86,25);fill-rule:nonzero;"/>
    <path d="M48.69,41.32L50.03,37.2L52.18,34.16L55.67,36.49L59.07,45.71L59,50.44C59,50.44 57.73,53.31 54.77,57.52C51.81,61.73 50.89,63.53 49.04,67.1C47.7,69.7 46.08,73.83 45.37,79.28C44.3,87.52 45.37,94.14 45.19,102.02C45.01,109.9 44.04,117.74 41.45,120.51C39.11,123.01 35.88,124.49 29.08,124.58C22.28,124.67 21.77,122.95 21.77,122.95L18.34,83.31L38.66,40.87L48.69,41.32Z" style="fill:rgb(242,141,94);fill-rule:nonzero;"/>
    <path d="M47.22,42.52C47.22,42.52 44.8,42.14 41.54,44.94C38.9,47.21 37.07,52.28 33.9,60.53C30.87,68.39 28.15,74.68 25.88,78.69C23.61,82.7 21.94,85.73 20.89,87.85C19.98,89.67 16.58,88.99 16.58,88.68C16.58,88.37 12.95,84.59 12.95,84.59L12.65,79.97C12.65,79.97 17.87,72.48 17.87,72.25C17.87,72.02 23.85,59.16 23.85,59.16C23.85,59.16 28.62,40.62 28.77,40.09C28.92,39.56 35.35,30.93 35.35,30.93L47.61,29.04C47.61,29.04 48.59,35.85 48.59,36.15C48.59,36.45 48.44,42.36 48.44,42.36L47.22,42.52Z" style="fill:rgb(230,86,25);fill-rule:nonzero;"/>
    <path d="M48.7,28.53C48.7,28.53 50.28,28.92 52.34,30.47C54.8,32.33 56.45,34.54 57.71,36.8C58.84,38.83 59.57,41.79 59.81,44.55C60.05,47.31 59.39,49.89 58.97,50.43C58.55,50.97 57.29,43.47 55.85,40.36C54.44,37.31 53.15,36.34 51.35,36.52C49.48,36.71 49.61,37.24 49.61,37.24L48.7,28.53Z" style="fill:rgb(230,86,25);fill-rule:nonzero;"/>
    <path d="M28.01,85.62L31.07,85.4C31.07,85.4 33.57,94.42 34.41,103.03C35.25,111.64 35.24,116.26 35.15,118.3C35.06,120.34 34.5,122.09 32.19,123.3C29.88,124.5 25.53,124.32 23.4,123.95C21.27,123.58 19.56,121.25 17.9,118.38C16.24,115.51 13.86,110.12 12.3,103.31C9.89,92.85 10.73,84.99 10.73,84.99L19.34,89.52L28.01,85.62Z" style="fill:rgb(255,176,145);fill-rule:nonzero;"/>
    <path d="M25.93,43.16C25.93,43.16 24.38,53.67 23.09,57.74C21.79,61.81 20.43,65.83 16.64,71.38C14.14,75.05 11.46,77.3 10.53,79.8C9.6,82.3 9.7,84.7 10.62,86.65C11.54,88.6 12.52,89.09 12.52,89.09C12.52,89.09 11.8,90.29 10.75,91.23C9.8,92.07 8.55,92.53 8.55,93.08C8.55,93.63 9.35,94.91 10.8,95.98C11.78,96.7 13.25,97.43 13.65,97.43C14.05,97.43 16.5,92.92 16.5,93.07C16.5,93.22 18.81,98.39 19.26,98.44C21.51,98.69 24.76,95.09 24.76,94.22C24.76,93.67 21.07,90.51 21.07,90.51C21.07,90.51 25.86,90.81 30.32,86.51C34.78,82.21 40.84,72.22 45.25,60.36C49.66,48.5 51.57,38.13 50.44,32.68C49.31,27.23 47.84,26.88 47.84,26.88L46.2,29.13C46.2,29.13 48.02,33.8 46.98,40.38C45.94,46.96 42.14,60.11 37.98,68.41C34.39,75.58 29.33,83.46 23.1,86.32C16.87,89.17 11.94,83.27 14.45,79.23C16.01,76.72 18.86,73.78 21.54,68.24C24.6,61.92 26.64,53.27 27.25,50.24C27.86,47.21 28.55,44.1 28.55,44.1L25.93,43.16Z" style="fill:rgb(251,236,231);fill-rule:nonzero;"/>
    <path d="M18.81,40.79C18.81,40.79 15.17,50.43 15.31,51.45C15.45,52.47 17.34,56.53 18.73,58.48C21.11,61.82 22.96,64.06 23.4,64.06C23.84,64.06 26.32,54.58 26.32,54.58C26.32,54.58 24.42,51.88 23.13,49.53C20.8,45.3 21.8,42.18 21.66,41.96C21.51,41.74 18.81,40.79 18.81,40.79Z" style="fill:rgb(231,102,43);fill-rule:nonzero;"/>
    <path d="M14.97,101.56C13.89,101.92 14.37,103.57 15.39,106.76C16.41,109.95 19.33,117.13 22.98,119.59C25.44,121.25 29.54,121.41 29.3,118.46C29.15,116.56 26.27,116.51 24.01,114.3C20.95,111.32 19.2,108.74 17.77,106.07C16.95,104.55 16.11,101.18 14.97,101.56Z" style="fill:rgb(251,236,231);fill-rule:nonzero;"/>
    <path d="M35.48,14.24C22.96,12.34 22.71,6.78 22.67,6.52C22.56,5.75 22.32,6.34 22.22,6.67C22.12,7 20.47,15.13 20.07,17.01C19.66,18.89 17.43,27.15 17.46,27.62C17.49,28.09 17.81,29.75 18.38,30.85C18.95,31.94 20.34,34.7 20.34,34.7C20.34,34.7 18.57,35.91 17.17,37C15.77,38.09 14.42,40.09 14.42,40.09C14.42,40.09 14.08,40.73 14.16,44.13C14.24,47.53 15.33,51.49 15.33,51.49C15.33,51.49 16.26,49.18 19.12,46.5C21.99,43.82 24.65,42.39 24.65,42.39C24.65,42.39 27.97,47.56 31.18,51.71C34.39,55.86 40.8,61.9 40.8,61.9C40.8,61.9 42.08,58.62 42.5,57.37C42.92,56.12 43.91,52.83 43.91,52.83C43.91,52.83 41.71,50.55 37.79,46.63C33.87,42.71 32,38.63 32,38.63C32,38.63 36.6,36.75 40.97,34.22C46.57,30.99 49.41,28.79 49.41,28.79C49.41,28.79 50.13,25.81 50.64,21.38C51.22,16.38 51.66,11.22 51.66,11.22C51.66,11.22 48.69,16.24 35.48,14.24ZM36.39,26.59C33.22,28 27.88,30.21 27.88,30.21L23.7,19.64C23.7,19.64 26.02,21.34 30.82,22.64C35.63,23.94 43.03,23.6 43.03,23.6C43.03,23.6 39.55,25.17 36.39,26.59Z" style="fill:rgb(255,147,101);fill-rule:nonzero;"/>
    <path d="M74.92,9.64L71.88,24.93C71.88,24.93 78.23,22.93 86.44,22.16C94.65,21.39 101.39,21.69 101.39,22.81C101.39,23.93 92.94,24.76 84.85,28.36C76.76,31.96 70.79,36.81 70.79,36.81C70.79,36.81 70.61,41.59 70.97,45.61C71.33,49.63 71.92,52.64 71.92,52.64C71.92,52.64 76.35,55.65 79.72,57.37C83.09,59.08 85.04,59.85 85.04,59.85L88.29,51.05C88.29,51.05 83.98,49.04 82.09,47.8C80.2,46.56 78.37,45.85 78.25,44.37C78.13,42.89 83.33,39.41 90.01,36.4C96.69,33.39 100.82,32.74 100.82,32.74C100.82,32.74 105.19,29.79 105.13,29.55C105.07,29.31 104.07,24.88 104.13,19.39C104.19,13.9 104.25,9.88 104.25,9.88C104.25,9.88 100.82,6.69 89.54,7.16C78.23,7.64 74.92,9.64 74.92,9.64Z" style="fill:rgb(255,147,101);fill-rule:nonzero;"/>
    <path d="M108.09,32.52L109.08,44.2L100.88,87.67L108.33,119.17C108.33,119.17 106.14,124.77 96.66,124.93C90.82,125.03 88.73,122.5 87.84,121.82C86.95,121.14 81.75,111.14 79.7,105.48C75.15,92.93 74.47,87.86 74.47,87.86L78.4,78.59L87.22,52.63L95.54,38.22L103.61,30.77L108.09,32.52Z" style="fill:rgb(255,176,145);fill-rule:nonzero;"/>
    <path d="M109.08,29.79L104.61,31.65C104.61,31.65 107.68,33.02 107.72,37.74C107.79,47.65 102.74,55.7 98.41,63.61C95.63,68.69 93.24,70.7 90.83,71.4C89.16,71.89 87.39,71.42 87.55,72.63C87.76,74.24 91.55,75.09 91.55,75.09C91.55,75.09 89.68,77.89 87.35,79.49C85.02,81.09 81.89,81.95 82.42,83.02C82.95,84.09 89.15,82.82 89.15,82.82C89.15,82.82 87.75,85.48 86.42,86.62C85.09,87.76 83.76,88.22 84.42,89.22C85.09,90.22 88.02,89.15 88.82,88.82C89.62,88.49 90.82,87.82 90.82,87.82C90.82,87.82 89.8,96.82 90.82,103.88C91.69,109.88 93.96,117.44 98.4,120.38C100.81,121.98 105.48,121.84 107.41,120.39C108.86,119.3 110.34,115.3 110.54,113.1C110.74,110.9 99.42,89.55 99.42,89.55L106.95,64.7L117.88,53.04C117.88,53.04 119.61,50.64 119.68,45.51C119.75,40.38 116.15,34.65 113.95,32.59C111.73,30.52 109.08,29.79 109.08,29.79Z" style="fill:rgb(242,141,94);fill-rule:nonzero;"/>
    <path d="M112.26,55.51L110.39,49.84C110.39,49.84 112.52,41.65 111.12,37.05C109.72,32.45 107.52,31.69 105.39,31.59C104.14,31.53 94.36,40 88.51,54.56C82.66,69.11 80.04,81.04 77.65,84.5C75.26,87.96 73.75,88.61 73.12,87.6C71.93,85.69 73.96,83.54 75.27,81.16C76.58,78.77 82.74,59.29 85.77,52.29C89.23,44.3 95.76,34.69 101.25,30.52C104.56,28 107.01,28.08 107.01,28.08C107.01,28.08 112.07,29.57 114.93,33.39C117.79,37.21 117.5,42.76 116.55,49.2C115.6,55.64 112.26,55.51 112.26,55.51Z" style="fill:rgb(251,236,231);fill-rule:nonzero;"/>
    <path d="M79.34,87.85C77.69,88.33 78.15,91.22 80.19,97.99C82.69,106.27 86.61,114.29 87.3,115.56C87.99,116.83 88.63,118 89.58,117.52C90.54,117.04 89.16,114.71 88.41,112.85C87.54,110.68 85.62,105.27 83.31,97.29C82.05,92.89 81.36,87.27 79.34,87.85Z" style="fill:rgb(251,236,231);fill-rule:nonzero;"/>
    <path d="M101.8,36.94C100.99,36.75 98.03,38.9 95.85,45.33C93.67,51.75 93.93,57.18 95.74,57.22C97.86,57.27 97.44,50.53 99.08,45.91C100.98,40.63 102.92,37.2 101.8,36.94Z" style="fill:rgb(248,226,213);fill-rule:nonzero;"/>
    <path d="M116.21,48.09C111.59,45.82 101.03,55.79 95.48,79.86C89.93,103.93 95.47,121.56 106.32,118.21C117.94,114.63 103.81,87.26 106.72,76.42C107.87,72.12 108.62,70.09 109.53,67.83C110.72,64.88 112.46,61.96 112.9,61.27C114.56,58.68 121.85,50.86 116.21,48.09Z" style="fill:rgb(255,204,128);fill-rule:nonzero;"/>
    <path d="M97.9,70.96L109.59,67.84C109.59,67.84 107.35,73.38 106.75,76.24C106.25,78.63 106.41,80.38 106.41,80.38L94.5,83.89C94.5,83.89 95.41,79.58 96.15,76.85C96.89,74.12 97.9,70.96 97.9,70.96Z" style="fill:rgb(230,86,25);fill-rule:nonzero;"/>
</svg>
